_images/SocialNetwork/jupyter.svg

<svg width="30" height="30" viewBox="0 0 30 30" fill="none" xmlns="http://www.w3.org/2000/svg">
<path d="M25.8789 1.85556C25.8938 2.20123 25.8067 2.5436 25.6287 2.83935C25.4506 3.1351 25.1896 3.37094 24.8786 3.51703C24.5676 3.66313 24.2206 3.71292 23.8816 3.66009C23.5425 3.60726 23.2266 3.45421 22.9738 3.22027C22.721 2.98634 22.5427 2.68205 22.4615 2.34589C22.3802 2.00974 22.3996 1.65683 22.5173 1.33182C22.6349 1.00679 22.8455 0.724274 23.1224 0.519992C23.3993 0.315711 23.7301 0.198848 24.0729 0.184189C24.532 0.164552 24.9802 0.329552 25.3188 0.642941C25.6575 0.956329 25.8589 1.39248 25.8789 1.85556Z" fill="black"/>
<path d="M15.7673 22.4202C11.1496 22.4202 7.1168 20.7281 5.02344 18.2236C5.80308 20.4709 7.25612 22.4182 9.18144 23.796C11.1068 25.1738 13.4091 25.9139 15.7699 25.9139C18.1307 25.9139 20.433 25.1738 22.3584 23.796C24.2837 22.4182 25.7367 20.4709 26.5164 18.2236C24.4178 20.7281 20.3851 22.4202 15.7673 22.4202Z" fill="black"/>
<path d="M15.7666 6.12945C20.3843 6.12945 24.4172 7.82152 26.5105 10.326C25.7309 8.0787 24.2778 6.1314 22.3525 4.75362C20.4272 3.37585 18.1248 2.63574 15.764 2.63574C13.4033 2.63574 11.1009 3.37585 9.17558 4.75362C7.25026 6.1314 5.79722 8.0787 5.01758 10.326C7.11608 7.8267 11.1489 6.12945 15.7666 6.12945Z" fill="black"/>
<path d="M9.42794 27.2905C9.44688 27.7263 9.33715 28.158 9.11267 28.5309C8.88819 28.9038 8.55903 29.2012 8.16689 29.3853C7.77475 29.5695 7.33725 29.6321 6.90978 29.5653C6.48231 29.4986 6.0841 29.3054 5.76556 29.0102C5.44702 28.7151 5.22248 28.3313 5.12037 27.9073C5.01826 27.4834 5.04316 27.0385 5.19193 26.6288C5.3407 26.2192 5.60665 25.8633 5.9561 25.6062C6.30555 25.349 6.72279 25.2023 7.155 25.1845C7.73311 25.1606 8.297 25.3689 8.72307 25.7637C9.14914 26.1585 9.40262 26.7075 9.42794 27.2905Z" fill="black"/>
<path d="M5.54998 5.56262C5.2964 5.57367 5.04527 5.50859 4.82838 5.37564C4.61148 5.24268 4.43858 5.04782 4.33154 4.81572C4.22451 4.58361 4.18816 4.3247 4.2271 4.07174C4.26603 3.8188 4.3785 3.58319 4.55027 3.39473C4.72204 3.20627 4.94539 3.07345 5.19204 3.01307C5.4387 2.95269 5.69757 2.96746 5.93589 3.05552C6.17421 3.14359 6.38128 3.30098 6.53087 3.50777C6.68046 3.71457 6.76585 3.96148 6.77624 4.21724C6.79014 4.55954 6.66884 4.89344 6.43896 5.14566C6.20907 5.39788 5.88936 5.54783 5.54998 5.56262Z" fill="black"/>
</svg>

<svg xmlns="http://www.w3.org/2000/svg" width="30" height="30" fill="none"><path fill="#000" d="M25.879 1.856c.015.345-.072.688-.25.983a1.74 1.74 0 0 1-.75.678 1.721 1.721 0 0 1-1.905-.297 1.762 1.762 0 0 1 .149-2.7 1.725 1.725 0 0 1 2.196.123c.338.313.54.75.56 1.213ZM15.767 22.42c-4.617 0-8.65-1.692-10.744-4.196a11.473 11.473 0 0 0 4.158 5.572 11.32 11.32 0 0 0 6.589 2.118c2.36 0 4.663-.74 6.588-2.118a11.474 11.474 0 0 0 4.158-5.572c-2.098 2.504-6.13 4.196-10.749 4.196ZM15.767 6.13c4.617 0 8.65 1.692 10.744 4.196a11.473 11.473 0 0 0-4.159-5.572 11.32 11.32 0 0 0-6.588-2.118c-2.36 0-4.663.74-6.588 2.118a11.473 11.473 0 0 0-4.158 5.572c2.098-2.5 6.13-4.197 10.749-4.197ZM9.428 27.29c.019.436-.09.868-.315 1.24-.225.374-.554.671-.946.855a2.168 2.168 0 0 1-2.401-.375 2.222 2.222 0 0 1-.574-2.381c.149-.41.415-.766.764-1.023a2.173 2.173 0 0 1 2.767.158c.426.395.68.944.705 1.527ZM5.55 5.563a1.274 1.274 0 0 1-1.218-.747 1.304 1.304 0 0 1 .218-1.421 1.28 1.28 0 0 1 1.386-.34 1.3 1.3 0 0 1 .503 2.09c-.23.253-.55.403-.889.418Z"/></svg>
